static/img/kroki/4042740fb3f9137bb2574b34a6467caf.svg

<?xml version="1.0" encoding="us-ascii" standalone="no"?><svg xmlns="http://www.w3.org/2000/svg" xmlns:xlink="http://www.w3.org/1999/xlink" contentStyleType="text/css" height="890px" preserveAspectRatio="none" style="width:559px;height:890px;" version="1.1" viewBox="0 0 559 890" width="559px" zoomAndPan="magnify"><defs/><g><!--class database--><g id="elem_database"><rect codeLine="23" fill="#3D176E" height="284.4609" id="database" rx="2.5" ry="2.5" style="stroke:#000D19;stroke-width:0.5;" width="287" x="7" y="438.76"/><ellipse cx="103.75" cy="458.6545" fill="#ADD1B2" rx="11" ry="11" style="stroke:#181818;stroke-width:1.0;"/><path d="M106.7188,464.2952 Q106.1406,464.592 105.5,464.7327 Q104.8594,464.8889 104.1563,464.8889 Q101.6563,464.8889 100.3281,463.2483 Q99.0156,461.592 99.0156,458.467 Q99.0156,455.342 100.3281,453.6858 Q101.6563,452.0295 104.1563,452.0295 Q104.8594,452.0295 105.5,452.1858 Q106.1563,452.342 106.7188,452.6389 L106.7188,455.3577 Q106.0938,454.7795 105.5,454.5139 Q104.9063,454.2327 104.2813,454.2327 Q102.9375,454.2327 102.25,455.3108 Q101.5625,456.3733 101.5625,458.467 Q101.5625,460.5608 102.25,461.6389 Q102.9375,462.7014 104.2813,462.7014 Q104.9063,462.7014 105.5,462.4358 Q106.0938,462.1545 106.7188,461.5764 L106.7188,464.2952 Z " fill="#000000"/><text fill="#D9B8FF" font-family="Helvetica" font-size="17" lengthAdjust="spacing" textLength="75" x="129.25" y="464.5398">database</text><line style="stroke:#000D19;stroke-width:0.5;" x1="8" x2="293" y1="478.5491" y2="478.5491"/><text fill="#D9B8FF" font-family="sans-serif" font-size="14" font-weight="bold" lengthAdjust="spacing" textLength="97" x="18" y="500.5442">db_endpoint</text><text fill="#D9B8FF" font-family="sans-serif" font-size="14" lengthAdjust="spacing" textLength="48" x="115" y="500.5442">: string</text><text fill="#D9B8FF" font-family="sans-serif" font-size="14" font-weight="bold" lengthAdjust="spacing" textLength="177" x="18" y="526.8411">db_publicly_accessible</text><text fill="#D9B8FF" font-family="sans-serif" font-size="14" lengthAdjust="spacing" textLength="65" x="195" y="526.8411">: boolean</text><text fill="#D9B8FF" font-family="sans-serif" font-size="14" font-weight="bold" lengthAdjust="spacing" textLength="76" x="18" y="553.1379">db_status</text><text fill="#D9B8FF" font-family="sans-serif" font-size="14" lengthAdjust="spacing" textLength="189" x="94" y="553.1379">: database_instance_status</text><text fill="#D9B8FF" font-family="sans-serif" font-size="14" font-weight="bold" lengthAdjust="spacing" textLength="62" x="18" y="579.4348">db_type</text><text fill="#D9B8FF" font-family="sans-serif" font-size="14" lengthAdjust="spacing" textLength="48" x="80" y="579.4348">: string</text><text fill="#D9B8FF" font-family="sans-serif" font-size="14" font-weight="bold" lengthAdjust="spacing" textLength="86" x="18" y="605.7317">db_version</text><text fill="#D9B8FF" font-family="sans-serif" font-size="14" lengthAdjust="spacing" textLength="48" x="104" y="605.7317">: string</text><text fill="#D9B8FF" font-family="sans-serif" font-size="14" font-weight="bold" lengthAdjust="spacing" textLength="109" x="18" y="632.0286">instance_type</text><text fill="#D9B8FF" font-family="sans-serif" font-size="14" lengthAdjust="spacing" textLength="48" x="127" y="632.0286">: string</text><text fill="#D9B8FF" font-family="sans-serif" font-size="14" font-weight="bold" lengthAdjust="spacing" textLength="145" x="18" y="658.3254">volume_encrypted</text><text fill="#D9B8FF" font-family="sans-serif" font-size="14" lengthAdjust="spacing" textLength="65" x="163" y="658.3254">: boolean</text><text fill="#D9B8FF" font-family="sans-serif" font-size="14" font-weight="bold" lengthAdjust="spacing" textLength="97" x="18" y="684.6223">volume_iops</text><text fill="#D9B8FF" font-family="sans-serif" font-size="14" lengthAdjust="spacing" textLength="44" x="115" y="684.6223">: int64</text><text fill="#D9B8FF" font-family="sans-serif" font-size="14" font-weight="bold" lengthAdjust="spacing" textLength="96" x="18" y="710.9192">volume_size</text><text fill="#D9B8FF" font-family="sans-serif" font-size="14" lengthAdjust="spacing" textLength="44" x="114" y="710.9192">: int64</text></g><!--class digitalocean_database--><g id="elem_digitalocean_database"><rect codeLine="34" fill="#3D176E" height="39.7891" id="digitalocean_database" rx="2.5" ry="2.5" style="stroke:#000D19;stroke-width:0.5;" width="227" x="181" y="844.22"/><ellipse cx="196" cy="864.1145" fill="#ADD1B2" rx="11" ry="11" style="stroke:#181818;stroke-width:1.0;"/><path d="M198.9688,869.7552 Q198.3906,870.052 197.75,870.1927 Q197.1094,870.3489 196.4063,870.3489 Q193.9063,870.3489 192.5781,868.7083 Q191.2656,867.052 191.2656,863.927 Q191.2656,860.802 192.5781,859.1458 Q193.9063,857.4895 196.4063,857.4895 Q197.1094,857.4895 197.75,857.6458 Q198.4063,857.802 198.9688,858.0989 L198.9688,860.8177 Q198.3438,860.2395 197.75,859.9739 Q197.1563,859.6927 196.5313,859.6927 Q195.1875,859.6927 194.5,860.7708 Q193.8125,861.8333 193.8125,863.927 Q193.8125,866.0208 194.5,867.0989 Q195.1875,868.1614 196.5313,868.1614 Q197.1563,868.1614 197.75,867.8958 Q198.3438,867.6145 198.9688,867.0364 L198.9688,869.7552 Z " fill="#000000"/><text fill="#D9B8FF" font-family="Helvetica" font-size="17" lengthAdjust="spacing" textLength="185" x="215" y="869.9998">digitalocean_database</text></g><!--class digitalocean_resource--><g id="elem_digitalocean_resource"><rect codeLine="37" fill="#3D176E" height="74.0859" id="digitalocean_resource" rx="2.5" ry="2.5" style="stroke:#000D19;stroke-width:0.5;" width="223" x="329" y="543.95"/><ellipse cx="344" cy="563.8445" fill="#ADD1B2" rx="11" ry="11" style="stroke:#181818;stroke-width:1.0;"/><path d="M346.9688,569.4852 Q346.3906,569.782 345.75,569.9227 Q345.1094,570.0789 344.4063,570.0789 Q341.9063,570.0789 340.5781,568.4383 Q339.2656,566.782 339.2656,563.657 Q339.2656,560.532 340.5781,558.8758 Q341.9063,557.2195 344.4063,557.2195 Q345.1094,557.2195 345.75,557.3758 Q346.4063,557.532 346.9688,557.8289 L346.9688,560.5477 Q346.3438,559.9695 345.75,559.7039 Q345.1563,559.4227 344.5313,559.4227 Q343.1875,559.4227 342.5,560.5008 Q341.8125,561.5633 341.8125,563.657 Q341.8125,565.7508 342.5,566.8289 Q343.1875,567.8914 344.5313,567.8914 Q345.1563,567.8914 345.75,567.6258 Q346.3438,567.3445 346.9688,566.7664 L346.9688,569.4852 Z " fill="#000000"/><text fill="#D9B8FF" font-family="Helvetica" font-size="17" lengthAdjust="spacing" textLength="181" x="363" y="569.7298">digitalocean_resource</text><line style="stroke:#000D19;stroke-width:0.5;" x1="330" x2="551" y1="583.7391" y2="583.7391"/><text fill="#D9B8FF" font-family="sans-serif" font-size="14" font-weight="bold" lengthAdjust="spacing" textLength="27" x="340" y="605.7342">urn</text><text fill="#D9B8FF" font-family="sans-serif" font-size="14" lengthAdjust="spacing" textLength="48" x="367" y="605.7342">: string</text></g><!--class resource--><g id="elem_resource"><rect codeLine="40" fill="#3D176E" height="310.7578" id="resource" rx="2.5" ry="2.5" style="stroke:#000D19;stroke-width:0.5;" width="227" x="181" y="7"/><ellipse cx="249.75" cy="26.8945" fill="#ADD1B2" rx="11" ry="11" style="stroke:#181818;stroke-width:1.0;"/><path d="M252.7188,32.5352 Q252.1406,32.832 251.5,32.9727 Q250.8594,33.1289 250.1563,33.1289 Q247.6563,33.1289 246.3281,31.4883 Q245.0156,29.832 245.0156,26.707 Q245.0156,23.582 246.3281,21.9258 Q247.6563,20.2695 250.1563,20.2695 Q250.8594,20.2695 251.5,20.4258 Q252.1563,20.582 252.7188,20.8789 L252.7188,23.5977 Q252.0938,23.0195 251.5,22.7539 Q250.9063,22.4727 250.2813,22.4727 Q248.9375,22.4727 248.25,23.5508 Q247.5625,24.6133 247.5625,26.707 Q247.5625,28.8008 248.25,29.8789 Q248.9375,30.9414 250.2813,30.9414 Q250.9063,30.9414 251.5,30.6758 Q252.0938,30.3945 252.7188,29.8164 L252.7188,32.5352 Z " fill="#000000"/><text fill="#D9B8FF" font-family="Helvetica" font-size="17" lengthAdjust="spacing" textLength="71" x="275.25" y="32.7798">resource</text><line style="stroke:#000D19;stroke-width:0.5;" x1="182" x2="407" y1="46.7891" y2="46.7891"/><text fill="#D9B8FF" font-family="sans-serif" font-size="14" font-weight="bold" lengthAdjust="spacing" textLength="29" x="192" y="68.7842">age</text><text fill="#D9B8FF" font-family="sans-serif" font-size="14" lengthAdjust="spacing" textLength="66" x="221" y="68.7842">: duration</text><text fill="#D9B8FF" font-family="sans-serif" font-size="14" font-weight="bold" lengthAdjust="spacing" textLength="43" x="192" y="95.0811">atime</text><text fill="#D9B8FF" font-family="sans-serif" font-size="14" lengthAdjust="spacing" textLength="70" x="235" y="95.0811">: datetime</text><text fill="#D9B8FF" font-family="sans-serif" font-size="14" font-weight="bold" lengthAdjust="spacing" textLength="43" x="192" y="121.3779">ctime</text><text fill="#D9B8FF" font-family="sans-serif" font-size="14" lengthAdjust="spacing" textLength="70" x="235" y="121.3779">: datetime</text><text fill="#D9B8FF" font-family="sans-serif" font-size="14" font-weight="bold" lengthAdjust="spacing" textLength="14" x="192" y="147.6748">id</text><text fill="#D9B8FF" font-family="sans-serif" font-size="14" lengthAdjust="spacing" textLength="48" x="206" y="147.6748">: string</text><text fill="#D9B8FF" font-family="sans-serif" font-size="14" font-weight="bold" lengthAdjust="spacing" textLength="33" x="192" y="173.9717">kind</text><text fill="#D9B8FF" font-family="sans-serif" font-size="14" lengthAdjust="spacing" textLength="48" x="225" y="173.9717">: string</text><text fill="#D9B8FF" font-family="sans-serif" font-size="14" font-weight="bold" lengthAdjust="spacing" textLength="90" x="192" y="200.2686">last_access</text><text fill="#D9B8FF" font-family="sans-serif" font-size="14" lengthAdjust="spacing" textLength="66" x="282" y="200.2686">: duration</text><text fill="#D9B8FF" font-family="sans-serif" font-size="14" font-weight="bold" lengthAdjust="spacing" textLength="90" x="192" y="226.5654">last_update</text><text fill="#D9B8FF" font-family="sans-serif" font-size="14" lengthAdjust="spacing" textLength="66" x="282" y="226.5654">: duration</text><text fill="#D9B8FF" font-family="sans-serif" font-size="14" font-weight="bold" lengthAdjust="spacing" textLength="48" x="192" y="252.8623">mtime</text><text fill="#D9B8FF" font-family="sans-serif" font-size="14" lengthAdjust="spacing" textLength="70" x="240" y="252.8623">: datetime</text><text fill="#D9B8FF" font-family="sans-serif" font-size="14" font-weight="bold" lengthAdjust="spacing" textLength="43" x="192" y="279.1592">name</text><text fill="#D9B8FF" font-family="sans-serif" font-size="14" lengthAdjust="spacing" textLength="48" x="235" y="279.1592">: string</text><text fill="#D9B8FF" font-family="sans-serif" font-size="14" font-weight="bold" lengthAdjust="spacing" textLength="34" x="192" y="305.4561">tags</text><text fill="#D9B8FF" font-family="sans-serif" font-size="14" lengthAdjust="spacing" textLength="171" x="226" y="305.4561">: dictionary[string, string]</text></g><!--reverse link resource to database--><g id="link_resource_database"><path codeLine="52" d="M235.1002,335.2226 C221.5002,374.5726 212.84,399.64 199.48,438.3 " fill="none" id="resource-backto-database" style="stroke:#FFAF37;stroke-width:2.0;"/><polygon fill="none" points="240.98,318.21,229.4293,333.2626,240.771,337.1825,240.98,318.21" style="stroke:#FFAF37;stroke-width:2.0;"/></g><!--reverse link database to digitalocean_database--><g id="link_database_digitalocean_database"><path codeLine="53" d="M231.1257,739.4008 C255.4957,786.9808 271.6,818.41 284.67,843.93 " fill="none" id="database-backto-digitalocean_database" style="stroke:#FFAF37;stroke-width:2.0;"/><polygon fill="none" points="222.92,723.38,225.7854,742.136,236.466,736.6656,222.92,723.38" style="stroke:#FFAF37;stroke-width:2.0;"/></g><!--reverse link digitalocean_resource to digitalocean_database--><g id="link_digitalocean_resource_digitalocean_database"><path codeLine="54" d="M413.2653,634.4249 C381.9453,694.7449 328.7,797.27 304.56,843.75 " fill="none" id="digitalocean_resource-backto-digitalocean_database" style="stroke:#FFAF37;stroke-width:2.0;"/><polygon fill="none" points="421.56,618.45,407.9403,631.66,418.5903,637.1898,421.56,618.45" style="stroke:#FFAF37;stroke-width:2.0;"/></g><!--reverse link resource to digitalocean_resource--><g id="link_resource_digitalocean_resource"><path codeLine="55" d="M354.7121,335.1974 C383.3421,416.9074 410.15,493.39 427.74,543.57 " fill="none" id="resource-backto-digitalocean_resource" style="stroke:#FFAF37;stroke-width:2.0;"/><polygon fill="none" points="348.76,318.21,349.0497,337.1815,360.3746,333.2134,348.76,318.21" style="stroke:#FFAF37;stroke-width:2.0;"/></g><!--SRC=[XPFBRjim44Nt-We1sHarO2Tj71VT90QATXCKJNT5OOp8aKoO8eNXo87w-FUIrYDwnTa9TmvdxbnI1oKnnhpWAiunJv1Sv8xA542Gn_T4zdbdjQNuAaqXlTcCYv-juJU1HyWn_eBwXAm4Z8aV1oME1fsBhtkb1n37Z6nfPDsU2Opp9JJSetOQdBjd9fMKZ3qpSflSfUcO73Uzkf7hpIrEC4iIgK5MgvLSRyV8cwCkxjqHJ-etnkj-Q8-MSM9pCk9CNNGPY9x9oQ9j_LMFtq1APRBuGq_xNdiYWpJGdmuWxNEWKz2kFyOn4bgk2jnDjiBjdKmti_3Nr-18XEXY2Gm9E8p_H8k5JFPeP66LuSNYe-z2tacj5sMYbT3L7eJmBqmb6WEIMAiHJCqu1YvTaDkkUsMyQ0GsjPeBliRzJ_v_KTOCvExmvC39wZ97RrPGLJ3AePMcgcnnDkEtkNt_8Zl_KbxaVsqEAbCCsWhVOjyBPHuWTBOaKQTMKjzsomyGoCuZPKd0VikWiCgnYGh3jzV4ZARaO75_mqF1p-BcJaOJpfMo2Br6bNncZe5y6353LdTK8Xm3gdxMjNSDyyklsYtvwUzokUokFUe2RFIvSAFvH2-Tk0IrjUW_]--></g></svg>

<svg xmlns="http://www.w3.org/2000/svg" width="559" height="890" viewBox="0 0 559 890"><rect width="287" height="284.461" x="7" y="438.76" fill="#3D176E" rx="2.5" ry="2.5" style="stroke:#000d19;stroke-width:.5"/><circle cx="103.75" cy="458.654" r="11" fill="#ADD1B2" style="stroke:#181818;stroke-width:1"/><path d="M106.719 464.295q-.578.297-1.219.438-.64.156-1.344.156-2.5 0-3.828-1.64-1.312-1.657-1.312-4.782t1.312-4.781q1.328-1.656 3.828-1.656.703 0 1.344.156.656.156 1.219.453v2.719q-.625-.579-1.219-.844-.594-.281-1.219-.281-1.344 0-2.031 1.078-.687 1.062-.687 3.156t.687 3.172q.688 1.062 2.031 1.062.625 0 1.219-.265.594-.281 1.219-.86z"/><text x="129.25" y="464.54" fill="#D9B8FF" font-family="Helvetica" font-size="17" textLength="75">database</text><path d="M8 478.549h285" style="stroke:#000d19;stroke-width:.5"/><text x="18" y="500.544" fill="#D9B8FF" font-family="sans-serif" font-size="14" font-weight="bold" textLength="97">db_endpoint</text><text x="115" y="500.544" fill="#D9B8FF" font-family="sans-serif" font-size="14" textLength="48">: string</text><text x="18" y="526.841" fill="#D9B8FF" font-family="sans-serif" font-size="14" font-weight="bold" textLength="177">db_publicly_accessible</text><text x="195" y="526.841" fill="#D9B8FF" font-family="sans-serif" font-size="14" textLength="65">: boolean</text><text x="18" y="553.138" fill="#D9B8FF" font-family="sans-serif" font-size="14" font-weight="bold" textLength="76">db_status</text><text x="94" y="553.138" fill="#D9B8FF" font-family="sans-serif" font-size="14" textLength="189">: database_instance_status</text><text x="18" y="579.435" fill="#D9B8FF" font-family="sans-serif" font-size="14" font-weight="bold" textLength="62">db_type</text><text x="80" y="579.435" fill="#D9B8FF" font-family="sans-serif" font-size="14" textLength="48">: string</text><text x="18" y="605.732" fill="#D9B8FF" font-family="sans-serif" font-size="14" font-weight="bold" textLength="86">db_version</text><text x="104" y="605.732" fill="#D9B8FF" font-family="sans-serif" font-size="14" textLength="48">: string</text><text x="18" y="632.029" fill="#D9B8FF" font-family="sans-serif" font-size="14" font-weight="bold" textLength="109">instance_type</text><text x="127" y="632.029" fill="#D9B8FF" font-family="sans-serif" font-size="14" textLength="48">: string</text><text x="18" y="658.325" fill="#D9B8FF" font-family="sans-serif" font-size="14" font-weight="bold" textLength="145">volume_encrypted</text><text x="163" y="658.325" fill="#D9B8FF" font-family="sans-serif" font-size="14" textLength="65">: boolean</text><text x="18" y="684.622" fill="#D9B8FF" font-family="sans-serif" font-size="14" font-weight="bold" textLength="97">volume_iops</text><text x="115" y="684.622" fill="#D9B8FF" font-family="sans-serif" font-size="14" textLength="44">: int64</text><text x="18" y="710.919" fill="#D9B8FF" font-family="sans-serif" font-size="14" font-weight="bold" textLength="96">volume_size</text><text x="114" y="710.919" fill="#D9B8FF" font-family="sans-serif" font-size="14" textLength="44">: int64</text><rect width="227" height="39.789" x="181" y="844.22" fill="#3D176E" rx="2.5" ry="2.5" style="stroke:#000d19;stroke-width:.5"/><circle cx="196" cy="864.115" r="11" fill="#ADD1B2" style="stroke:#181818;stroke-width:1"/><path d="M198.969 869.755q-.578.297-1.219.438-.64.156-1.344.156-2.5 0-3.828-1.64-1.312-1.657-1.312-4.782t1.312-4.781q1.328-1.656 3.828-1.656.703 0 1.344.156.656.156 1.219.453v2.719q-.625-.578-1.219-.844-.594-.281-1.219-.281-1.344 0-2.031 1.078-.687 1.062-.687 3.156t.687 3.172q.688 1.062 2.031 1.062.625 0 1.219-.265.594-.281 1.219-.86z"/><text x="215" y="870" fill="#D9B8FF" font-family="Helvetica" font-size="17" textLength="185">digitalocean_database</text><rect width="223" height="74.086" x="329" y="543.95" fill="#3D176E" rx="2.5" ry="2.5" style="stroke:#000d19;stroke-width:.5"/><circle cx="344" cy="563.845" r="11" fill="#ADD1B2" style="stroke:#181818;stroke-width:1"/><path d="M346.969 569.485q-.578.297-1.219.438-.64.156-1.344.156-2.5 0-3.828-1.64-1.312-1.657-1.312-4.782t1.312-4.781q1.328-1.656 3.828-1.656.703 0 1.344.156.656.156 1.219.453v2.719q-.625-.578-1.219-.844-.594-.281-1.219-.281-1.344 0-2.031 1.078-.687 1.062-.687 3.156t.687 3.172q.688 1.062 2.031 1.062.625 0 1.219-.265.594-.281 1.219-.86z"/><text x="363" y="569.73" fill="#D9B8FF" font-family="Helvetica" font-size="17" textLength="181">digitalocean_resource</text><path d="M330 583.739h221" style="stroke:#000d19;stroke-width:.5"/><text x="340" y="605.734" fill="#D9B8FF" font-family="sans-serif" font-size="14" font-weight="bold" textLength="27">urn</text><text x="367" y="605.734" fill="#D9B8FF" font-family="sans-serif" font-size="14" textLength="48">: string</text><rect width="227" height="310.758" x="181" y="7" fill="#3D176E" rx="2.5" ry="2.5" style="stroke:#000d19;stroke-width:.5"/><circle cx="249.75" cy="26.895" r="11" fill="#ADD1B2" style="stroke:#181818;stroke-width:1"/><path d="M252.719 32.535q-.578.297-1.219.438-.64.156-1.344.156-2.5 0-3.828-1.64-1.312-1.657-1.312-4.782t1.312-4.781q1.328-1.656 3.828-1.656.703 0 1.344.156.656.156 1.219.453v2.719q-.625-.578-1.219-.844-.594-.281-1.219-.281-1.344 0-2.031 1.078-.687 1.062-.687 3.156t.687 3.172q.688 1.062 2.031 1.062.625 0 1.219-.265.594-.281 1.219-.86z"/><text x="275.25" y="32.78" fill="#D9B8FF" font-family="Helvetica" font-size="17" textLength="71">resource</text><path d="M182 46.789h225" style="stroke:#000d19;stroke-width:.5"/><text x="192" y="68.784" fill="#D9B8FF" font-family="sans-serif" font-size="14" font-weight="bold" textLength="29">age</text><text x="221" y="68.784" fill="#D9B8FF" font-family="sans-serif" font-size="14" textLength="66">: duration</text><text x="192" y="95.081" fill="#D9B8FF" font-family="sans-serif" font-size="14" font-weight="bold" textLength="43">atime</text><text x="235" y="95.081" fill="#D9B8FF" font-family="sans-serif" font-size="14" textLength="70">: datetime</text><text x="192" y="121.378" fill="#D9B8FF" font-family="sans-serif" font-size="14" font-weight="bold" textLength="43">ctime</text><text x="235" y="121.378" fill="#D9B8FF" font-family="sans-serif" font-size="14" textLength="70">: datetime</text><text x="192" y="147.675" fill="#D9B8FF" font-family="sans-serif" font-size="14" font-weight="bold" textLength="14">id</text><text x="206" y="147.675" fill="#D9B8FF" font-family="sans-serif" font-size="14" textLength="48">: string</text><text x="192" y="173.972" fill="#D9B8FF" font-family="sans-serif" font-size="14" font-weight="bold" textLength="33">kind</text><text x="225" y="173.972" fill="#D9B8FF" font-family="sans-serif" font-size="14" textLength="48">: string</text><text x="192" y="200.269" fill="#D9B8FF" font-family="sans-serif" font-size="14" font-weight="bold" textLength="90">last_access</text><text x="282" y="200.269" fill="#D9B8FF" font-family="sans-serif" font-size="14" textLength="66">: duration</text><text x="192" y="226.565" fill="#D9B8FF" font-family="sans-serif" font-size="14" font-weight="bold" textLength="90">last_update</text><text x="282" y="226.565" fill="#D9B8FF" font-family="sans-serif" font-size="14" textLength="66">: duration</text><text x="192" y="252.862" fill="#D9B8FF" font-family="sans-serif" font-size="14" font-weight="bold" textLength="48">mtime</text><text x="240" y="252.862" fill="#D9B8FF" font-family="sans-serif" font-size="14" textLength="70">: datetime</text><text x="192" y="279.159" fill="#D9B8FF" font-family="sans-serif" font-size="14" font-weight="bold" textLength="43">name</text><text x="235" y="279.159" fill="#D9B8FF" font-family="sans-serif" font-size="14" textLength="48">: string</text><text x="192" y="305.456" fill="#D9B8FF" font-family="sans-serif" font-size="14" font-weight="bold" textLength="34">tags</text><text x="226" y="305.456" fill="#D9B8FF" font-family="sans-serif" font-size="14" textLength="171">: dictionary[string, string]</text><path fill="none" d="M235.1 335.223c-13.6 39.35-22.26 64.417-35.62 103.077m41.5-120.09-11.55 15.053 11.341 3.92z" style="stroke:#ffaf37;stroke-width:2"/><g fill="none"><path d="M231.126 739.4c24.37 47.58 40.474 79.01 53.544 104.53" style="stroke:#ffaf37;stroke-width:2"/><path d="m222.92 723.38 2.865 18.756 10.681-5.47z" style="stroke:#ffaf37;stroke-width:2"/></g><g fill="none"><path d="M413.265 634.425C381.945 694.745 328.7 797.27 304.56 843.75" style="stroke:#ffaf37;stroke-width:2"/><path d="m421.56 618.45-13.62 13.21 10.65 5.53z" style="stroke:#ffaf37;stroke-width:2"/></g><g fill="none"><path d="M354.712 335.197c28.63 81.71 55.438 158.193 73.028 208.373" style="stroke:#ffaf37;stroke-width:2"/><path d="m348.76 318.21.29 18.972 11.325-3.969z" style="stroke:#ffaf37;stroke-width:2"/></g></svg>
